X: 198
%
U:~=!turn!
T: General Wemyss of Wemyss
C:Nath. Gow
O:Scotland
B:Keith Norman MacDonald : "The Skye collection of the best reels & strathspeys extant" : 1887
Z:Ralph Palmer
R:Reel
M:C
L:1/8
K:F
C | TF2 AF (ABc)f | A<Fc>F EGGA | TF2 AF (ABc)A | dfeg fFF :| g | (a/g/f/e/) fc (ABc)f | A<Fc>F EGGg |
(Tfef).c (ABc)A | dfeg fFFg | afge (fdTc)>B | A<Fc>F EGGB | AFcA Bcde | fcdB AFF |]


